svg/set/CMD/C.svg

<?xml version="1.0" encoding="UTF-8" standalone="no"?>
<svg xmlns="http://www.w3.org/2000/svg" version="1.1" width="600" height="648.78894">
  <path d="m 600,648.78893 -600,0 0,-145.34494 15.003244,-7.9801 0,-294.17712 153.649436,-73.66999 0,-57.98551 L 300,0 l 131.3311,69.63127 0,57.98551 153.64944,73.66999 0,294.17712 15.01946,7.9801 0,145.34494 z" style="fill:#ffffff"/>
  <path d="m 553.67647,464.41934 0,-243.42561 -118.0958,-56.57439 0,243.36072 118.0958,56.63928 z m -389.20848,-56.63928 0,-243.36072 -118.095801,56.57439 0,243.42561 118.095801,-56.63928 z M 300,35.48876 l -99.97837,52.95739 0,301.28136 L 300,336.68902 l 99.97837,53.03849 0,-301.28136 L 300,35.48876 z m -268.712154,582.01232 0,-95.22599 L 300,379.52531 l 268.69593,142.74978 0,95.22599 -537.408084,0 z"/>
</svg>

<?xml version="1.0" encoding="UTF-8" standalone="no"?>
<svg
   version="1.1"
   width="600"
   height="648.78894"
   id="svg2"
   xmlns="http://www.w3.org/2000/svg"
   xmlns:svg="http://www.w3.org/2000/svg">
  <defs
     id="defs2" />
  <path
     d="M 600,648.78893 H 0 V 503.44399 l 15.003244,-7.9801 V 201.28677 L 168.65268,127.61678 V 69.63127 L 300,0 431.3311,69.63127 v 57.98551 l 153.64944,73.66999 V 495.46389 L 600,503.44399 Z"
     style="fill:#ffffff"
     id="path1" />
  <path
     d="M 553.67647,464.41934 V 220.99373 L 435.58067,164.41934 V 407.78006 Z M 164.46799,407.78006 V 164.41934 L 46.372189,220.99373 V 464.41934 Z M 300,35.48876 200.02163,88.44615 V 389.72751 L 300,336.68902 399.97837,389.72751 V 88.44615 Z M 31.287846,617.50108 V 522.27509 L 300,379.52531 568.69593,522.27509 v 95.22599 z"
     id="path2" />
</svg>
